X:83
T:It Don't Mean a Thing if It Ain't Got That Swing
C:Duke Ellington / Irving Mills
N:TablEdited by Kim Davis and Mike Stangeland
L:1/8
Q:1/4=207
M:4/4
K:Bb
z6 d2 | "Gm"G4 G2 B2 | d4 "Gm/F"G2 B2 | "Eb7"_d4 "D7"cB zG | "Gm"z8 | "C7/G"z2 BB BB B2 | 
"Gb7b5"BB zB B2 BB | "Cm7/F"BB B2 BB zB | "Bb6"B2 z4 "D7#5"B2 | "Gm"G4 "Gm/F"G2 B2 | 
"Gm/E"d4 z"Eb7"B zG | "D7#5"B2 B2 "Db7"B2 G2 | "C7"B8 | "C7/G"z2 BB BB B2 | "Gb7b5"BB zB B2 BB | 
"Cm7/F"BB B2 BB zB | "Bb6"B6 "F#dim7"c2 | "Bb7"c2 c2 cB zc | z2 B2 cB z2 | "Eb"G8 | 
z6 "F#dim7"c2 | c2 c2 cc z2 | c2 B2 cc z2 | "F7"F8 | "G7"G6 "D7#5"B2 | "Gm"G4 G2 B2 | 
d4 "Gm/F"G2 B2 | "Eb7"_d4 "D7"cB zG | "Gm"z8 | "C7/G"z2 BB BB B2 | "Gb7b5"BB zB B2 BB | 
"Cm7/F"BB B2 BB zB | "Bb6"B6 "D7#5"B2 | "Bb6"B6 z2 | 


